img/anim/basse-cour-anim0073.svg

<svg xmlns="http://www.w3.org/2000/svg" xmlns:xlink="http://www.w3.org/1999/xlink" preserveAspectRatio="none" width="1024" height="1024"><defs><path fill="#9B6442" d="m58.05 121.4-.1 24.65 53.8.15.05-24.65-53.75-.15Z" id="a"/><path fill="#6A432D" d="m80.7 146.65-.15 49.55q0 1.9 1.35 3.2 1.35 1.35 3.2 1.35 1.9 0 3.2-1.3 1.35-1.35 1.35-3.25l.15-49.5q0-1.85-1.35-3.2-1.3-1.35-3.2-1.35-1.9 0-3.2 1.3-1.35 1.35-1.35 3.2Z" id="b"/><path fill="#6A432D" d="M78.9 149.6q-1.1 1.05-1.1 2.55 0 1.45 1.05 2.55 1.05 1.05 2.55 1.05l7.75.05q1.5 0 2.55-1.05 1.05-1.1 1.05-2.6 0-1.45-1.05-2.55-1.05-1.05-2.55-1.05h-7.7q-1.5-.05-2.55 1.05Z" id="c"/><path fill="#D8A359" d="m80.25 121.45-.05 24.7h10.35l.05-24.65-10.35-.05Z" id="d"/><path fill="#6A432D" d="M108.95-156.9q-6.4-6.4-15.2-6.4-8.85 0-15.25 6.4-6.4 6.2-6.4 15.25l-.2 75.75q0 8.85 6.2 15.25 6.4 6.2 15.25 6.2 8.8.2 15.2-6.2Q115-57.05 115-65.9l.2-75.75q0-8.85-6.25-15.25Z" id="e"/><path fill="#6A432D" d="M-71-142.05q.2-8.85-6.2-15.25-6.45-6.4-15.25-6.4t-15.25 6.2q-6.2 6.4-6.4 15.25l-.2 75.75q0 9.05 6.4 15.45 6.45 6.2 15.25 6.2t15.25-6.2q6.2-6.4 6.2-15.25l.2-75.75Z" id="f"/><path fill="#9B6442" d="M90.2 120.7q-.35.3-.35.8l-.1 24.85q0 .45.35.8.35.3.8.3.5 0 .8-.3.35-.35.35-.8l.05-24.85q0-.5-.35-.8-.3-.35-.8-.35-.45 0-.75.35Z" id="g"/><path fill="#9B6442" d="M78.9 120.65q-.35.35-.35.8l-.05 24.85q0 .45.35.8.3.35.75.35.5 0 .8-.35.35-.3.35-.8l.05-24.85q0-.45-.3-.8-.35-.3-.8-.35-.5 0-.8.35Z" id="h"/><path fill="#9B6442" d="M80.05 173.8q-.45.4-.45 1t.4 1.05q.45.4 1 .4h8.1q.6 0 1.05-.4.4-.45.4-1 0-.6-.4-1-.45-.45-1-.45h-8.1q-.6-.05-1 .4Z" id="i"/><path fill="#9B6442" d="M80.05 170q-.45.4-.45 1t.45 1.05q.4.4 1 .4h8.1q.55 0 1-.4.4-.45.4-1.05 0-.55-.4-1-.4-.4-1-.4l-8.1-.05q-.6 0-1 .45Z" id="j"/></defs><use xlink:href="#a" transform="translate(-113.536 -666.902) scale(7.37105)"/><use xlink:href="#b" transform="translate(-113.536 -666.902) scale(7.37105)"/><use xlink:href="#c" transform="translate(-113.536 -666.902) scale(7.37105)"/><use xlink:href="#d" transform="translate(-113.536 -666.902) scale(7.37105)"/><use xlink:href="#e" transform="matrix(1.83873 0 0 1.83873 512 512)"/><use xlink:href="#f" transform="matrix(1.83873 0 0 1.83873 512 512)"/><use xlink:href="#g" transform="translate(-113.536 -666.902) scale(7.37105)"/><use xlink:href="#h" transform="translate(-113.536 -666.902) scale(7.37105)"/><use xlink:href="#i" transform="translate(-113.536 -666.902) scale(7.37105)"/><use xlink:href="#j" transform="translate(-113.536 -666.902) scale(7.37105)"/></svg>

<svg xmlns="http://www.w3.org/2000/svg" version="1.1" xmlns:xlink="http://www.w3.org/1999/xlink" preserveAspectRatio="none" x="0px" y="0px" width="1024px" height="1024px" viewBox="0 0 1024 1024">
<defs>
<g id="Interpoler_3_0_Layer0_0_MEMBER_0_FILL">
<path fill="#9B6442" stroke="none" d="
M 58.05 121.4
L 57.95 146.05 111.75 146.2 111.8 121.55 58.05 121.4 Z"/>
</g>

<g id="Interpoler_3_0_Layer0_0_MEMBER_1_FILL">
<path fill="#6A432D" stroke="none" d="
M 80.7 146.65
L 80.55 196.2
Q 80.55 198.1 81.9 199.4 83.25 200.75 85.1 200.75 87 200.75 88.3 199.45 89.65 198.1 89.65 196.2
L 89.8 146.7
Q 89.8 144.85 88.45 143.5 87.15 142.15 85.25 142.15 83.35 142.15 82.05 143.45 80.7 144.8 80.7 146.65 Z"/>
</g>

<g id="Interpoler_3_0_Layer0_0_MEMBER_2_FILL">
<path fill="#6A432D" stroke="none" d="
M 78.9 149.6
Q 77.8 150.65 77.8 152.15 77.8 153.6 78.85 154.7 79.9 155.75 81.4 155.75
L 89.15 155.8
Q 90.65 155.8 91.7 154.75 92.75 153.65 92.75 152.15 92.75 150.7 91.7 149.6 90.65 148.55 89.15 148.55
L 81.45 148.55
Q 79.95 148.5 78.9 149.6 Z"/>
</g>

<g id="Interpoler_3_0_Layer0_0_MEMBER_3_FILL">
<path fill="#D8A359" stroke="none" d="
M 80.25 121.45
L 80.2 146.15 90.55 146.15 90.6 121.5 80.25 121.45 Z"/>
</g>

<g id="Interpoler_3_0_Layer0_0_MEMBER_4_FILL">
<path fill="#6A432D" stroke="none" d="
M 108.95 -156.9
Q 102.55 -163.3 93.75 -163.3 84.9 -163.3 78.5 -156.9 72.1 -150.7 72.1 -141.65
L 71.9 -65.9
Q 71.9 -57.05 78.1 -50.65 84.5 -44.45 93.35 -44.45 102.15 -44.25 108.55 -50.65 115 -57.05 115 -65.9
L 115.2 -141.65
Q 115.2 -150.5 108.95 -156.9 Z"/>
</g>

<g id="Interpoler_3_0_Layer0_0_MEMBER_5_FILL">
<path fill="#6A432D" stroke="none" d="
M -71 -142.05
Q -70.8 -150.9 -77.2 -157.3 -83.65 -163.7 -92.45 -163.7 -101.25 -163.7 -107.7 -157.5 -113.9 -151.1 -114.1 -142.25
L -114.3 -66.5
Q -114.3 -57.45 -107.9 -51.05 -101.45 -44.85 -92.65 -44.85 -83.85 -44.85 -77.4 -51.05 -71.2 -57.45 -71.2 -66.3
L -71 -142.05 Z"/>
</g>

<g id="Interpoler_3_0_Layer0_0_MEMBER_6_FILL">
<path fill="#9B6442" stroke="none" d="
M 90.2 120.7
Q 89.85 121 89.85 121.5
L 89.75 146.35
Q 89.75 146.8 90.1 147.15 90.45 147.45 90.9 147.45 91.4 147.45 91.7 147.15 92.05 146.8 92.05 146.35
L 92.1 121.5
Q 92.1 121 91.75 120.7 91.45 120.35 90.95 120.35 90.5 120.35 90.2 120.7 Z"/>
</g>

<g id="Interpoler_3_0_Layer0_0_MEMBER_7_FILL">
<path fill="#9B6442" stroke="none" d="
M 78.9 120.65
Q 78.55 121 78.55 121.45
L 78.5 146.3
Q 78.5 146.75 78.85 147.1 79.15 147.45 79.6 147.45 80.1 147.45 80.4 147.1 80.75 146.8 80.75 146.3
L 80.8 121.45
Q 80.8 121 80.5 120.65 80.15 120.35 79.7 120.3 79.2 120.3 78.9 120.65 Z"/>
</g>

<g id="Interpoler_3_0_Layer0_0_MEMBER_8_FILL">
<path fill="#9B6442" stroke="none" d="
M 80.05 173.8
Q 79.6 174.2 79.6 174.8 79.6 175.4 80 175.85 80.45 176.25 81 176.25
L 89.1 176.25
Q 89.7 176.25 90.15 175.85 90.55 175.4 90.55 174.85 90.55 174.25 90.15 173.85 89.7 173.4 89.15 173.4
L 81.05 173.4
Q 80.45 173.35 80.05 173.8 Z"/>
</g>

<g id="Interpoler_3_0_Layer0_0_MEMBER_9_FILL">
<path fill="#9B6442" stroke="none" d="
M 80.05 170
Q 79.6 170.4 79.6 171 79.6 171.6 80.05 172.05 80.45 172.45 81.05 172.45
L 89.15 172.45
Q 89.7 172.45 90.15 172.05 90.55 171.6 90.55 171 90.55 170.45 90.15 170 89.75 169.6 89.15 169.6
L 81.05 169.55
Q 80.45 169.55 80.05 170 Z"/>
</g>
</defs>

<g transform="matrix( 1.8387298583984375, 0, 0, 1.8387298583984375, 512,512) ">
<g transform="matrix( 4.0087738037109375, 0, 0, 4.0087738037109375, -340.2,-641.15) ">
<use xlink:href="#Interpoler_3_0_Layer0_0_MEMBER_0_FILL"/>
</g>

<g transform="matrix( 4.0087738037109375, 0, 0, 4.0087738037109375, -340.2,-641.15) ">
<use xlink:href="#Interpoler_3_0_Layer0_0_MEMBER_1_FILL"/>
</g>

<g transform="matrix( 4.0087738037109375, 0, 0, 4.0087738037109375, -340.2,-641.15) ">
<use xlink:href="#Interpoler_3_0_Layer0_0_MEMBER_2_FILL"/>
</g>

<g transform="matrix( 4.0087738037109375, 0, 0, 4.0087738037109375, -340.2,-641.15) ">
<use xlink:href="#Interpoler_3_0_Layer0_0_MEMBER_3_FILL"/>
</g>

<g transform="matrix( 1, 0, 0, 1, 0,0) ">
<use xlink:href="#Interpoler_3_0_Layer0_0_MEMBER_4_FILL"/>
</g>

<g transform="matrix( 1, 0, 0, 1, 0,0) ">
<use xlink:href="#Interpoler_3_0_Layer0_0_MEMBER_5_FILL"/>
</g>

<g transform="matrix( 4.0087738037109375, 0, 0, 4.0087738037109375, -340.2,-641.15) ">
<use xlink:href="#Interpoler_3_0_Layer0_0_MEMBER_6_FILL"/>
</g>

<g transform="matrix( 4.0087738037109375, 0, 0, 4.0087738037109375, -340.2,-641.15) ">
<use xlink:href="#Interpoler_3_0_Layer0_0_MEMBER_7_FILL"/>
</g>

<g transform="matrix( 4.0087738037109375, 0, 0, 4.0087738037109375, -340.2,-641.15) ">
<use xlink:href="#Interpoler_3_0_Layer0_0_MEMBER_8_FILL"/>
</g>

<g transform="matrix( 4.0087738037109375, 0, 0, 4.0087738037109375, -340.2,-641.15) ">
<use xlink:href="#Interpoler_3_0_Layer0_0_MEMBER_9_FILL"/>
</g>
</g>
</svg>
